actions/symbolic/call-start-symbolic.svg

<?xml version="1.0" encoding="UTF-8" standalone="no"?>
<svg
   xmlns:dc="http://purl.org/dc/elements/1.1/"
   xmlns:cc="http://creativecommons.org/ns#"
   xmlns:rdf="http://www.w3.org/1999/02/22-rdf-syntax-ns#"
   xmlns:svg="http://www.w3.org/2000/svg"
   xmlns="http://www.w3.org/2000/svg"
   xmlns:sodipodi="http://sodipodi.sourceforge.net/DTD/sodipodi-0.dtd"
   xmlns:inkscape="http://www.inkscape.org/namespaces/inkscape"
   viewBox="0 0 16 16"
   id="svg2"
   version="1.1"
   inkscape:version="0.91 r13725"
   sodipodi:docname="call-start-symbolic.svg">
  <metadata
     id="metadata10">
    <rdf:RDF>
      <cc:Work
         rdf:about="">
        <dc:format>image/svg+xml</dc:format>
        <dc:type
           rdf:resource="http://purl.org/dc/dcmitype/StillImage" />
      </cc:Work>
    </rdf:RDF>
  </metadata>
  <sodipodi:namedview
     pagecolor="#ffffff"
     bordercolor="#666666"
     borderopacity="1"
     objecttolerance="10"
     gridtolerance="10"
     guidetolerance="10"
     inkscape:pageopacity="0"
     inkscape:pageshadow="2"
     inkscape:window-width="640"
     inkscape:window-height="480"
     id="namedview8"
     showgrid="false"
     inkscape:zoom="39.8125"
     inkscape:cx="-0.94191521"
     inkscape:cy="8"
     inkscape:current-layer="svg2" />
  <defs
     id="defs3051">
    <style
       type="text/css"
       id="current-color-scheme">
      .ColorScheme-Text {
        color:#bebebe;
      }
      </style>
  </defs>
  <path
     style="color:#bebebe;fill:currentColor;fill-opacity:1;stroke:none"
     class="ColorScheme-Text"
     d="M 11.101373,10.088543 10.120808,9.1078816 C 9.9255004,8.9133536 9.602063,8.9192636 9.3999531,9.1214556 l -0.4940099,0.493906 c -0.0312,-0.01718 -0.063525,-0.03518 -0.097485,-0.05422 C 8.4965033,9.3882836 8.0695284,9.1513656 7.620226,8.7017336 7.1695961,8.2511563 6.9324612,7.8235289 6.7590763,7.511364 c -0.0183,-0.033075 -0.03585,-0.06495 -0.0531,-0.095235 L 7.0375287,7.085064 7.2005337,6.9218641 C 7.4029586,6.7193867 7.4085386,6.3960393 7.2136587,6.2009493 L 6.2331014,5.2201745 C 6.0382515,5.0253546 5.7146716,5.0312646 5.5122467,5.2337495 l -0.2763525,0.2779425 0.00758,0.0075 c -0.092665,0.1182375 -0.1701021,0.2546099 -0.2277246,0.4016699 -0.0531,0.1399875 -0.08619,0.2735624 -0.1013099,0.4074224 -0.12948,1.0733847 0.3610273,2.0543844 1.6922019,3.3855743 1.840087,1.8399594 3.322957,1.7009624 3.3869316,1.6941744 0.1393278,-0.01665 0.2728498,-0.04995 0.4085478,-0.102645 0.145785,-0.05692 0.282067,-0.134272 0.40023,-0.22674 l 0.006,0.0052 0.279967,-0.274147 c 0.202005,-0.20244 0.207825,-0.525893 0.01305,-0.721298 z M 13.976197,7.4660865 A 5.9999984,5.9999984 0 0 1 8.5339208,13.976197 5.9999984,5.9999984 0 0 1 2.0238026,8.5339212 5.9999984,5.9999984 0 0 1 7.4660861,2.0238104 5.9999984,5.9999984 0 0 1 13.976197,7.4660865 Z"
     id="path6"
     inkscape:connector-curvature="0" />
</svg>

<svg xmlns="http://www.w3.org/2000/svg" viewBox="0 0 16 16">
  <path fill="#bebebe" d="M11.101 10.089l-.98-.981a.511.511 0 0 0-.721.013l-.494.494a14.6 14.6 0 0 1-.098-.054c-.311-.173-.738-.41-1.188-.86s-.688-.877-.86-1.19c-.02-.033-.037-.065-.054-.095l.332-.33.163-.164a.51.51 0 0 0 .013-.721l-.98-.98a.51.51 0 0 0-.722.013l-.276.278.007.007a1.598 1.598 0 0 0-.329.81c-.129 1.073.361 2.054 1.693 3.385 1.84 1.84 3.323 1.7 3.387 1.694a1.657 1.657 0 0 0 .808-.33l.006.006.28-.274a.512.512 0 0 0 .013-.722zm2.875-2.623a6 6 0 0 1-5.442 6.51 6 6 0 0 1-6.51-5.442 6 6 0 0 1 5.442-6.51 6 6 0 0 1 6.51 5.442z"/>
</svg>
